svg/fluentui-system-icons/ic_fluent_comment_link_48_filled.svg

<svg width="48" height="48" viewBox="0 0 48 48" fill="none" xmlns="http://www.w3.org/2000/svg">
<path d="M23 10.25C23 6.79822 25.7982 4 29.25 4H30.75C31.4404 4 32 4.55964 32 5.25C32 5.94036 31.4404 6.5 30.75 6.5H29.25C27.1789 6.5 25.5 8.17893 25.5 10.25C25.5 12.3211 27.1789 14 29.25 14H30.75C31.4404 14 32 14.5596 32 15.25C32 15.9404 31.4404 16.5 30.75 16.5H29.25C25.7982 16.5 23 13.7018 23 10.25ZM45 10.25C45 6.79822 42.2018 4 38.75 4H37.25C36.5596 4 36 4.55964 36 5.25C36 5.94036 36.5596 6.5 37.25 6.5H38.75C40.8211 6.5 42.5 8.17893 42.5 10.25C42.5 12.3211 40.8211 14 38.75 14H37.25C36.5596 14 36 14.5596 36 15.25C36 15.9404 36.5596 16.5 37.25 16.5H38.75C42.2018 16.5 45 13.7018 45 10.25ZM28 10.25C28 9.55964 28.5596 9 29.25 9H38.75C39.4404 9 40 9.55964 40 10.25C40 10.9404 39.4404 11.5 38.75 11.5H29.25C28.5596 11.5 28 10.9404 28 10.25ZM21 10.25C21 8.69543 21.4169 7.24128 22.1418 6H11.25C7.24594 6 4 9.24594 4 13.25V28.75C4 32.7541 7.24594 36 11.25 36H12V41.8201C12 43.6444 14.0571 44.7103 15.5475 43.6583L26.3967 36H36.75C40.7541 36 44 32.7541 44 28.75V16.6905C42.6304 17.8228 40.8919 18.5 39 18.5H29C24.5817 18.5 21 14.8063 21 10.25Z" fill="#212121"/>
</svg>

<svg xmlns="http://www.w3.org/2000/svg" width="48" height="48"><path d="M23 10.25A6.25 6.25 0 0 1 29.25 4h1.5a1.25 1.25 0 1 1 0 2.5h-1.5a3.75 3.75 0 1 0 0 7.5h1.5a1.25 1.25 0 1 1 0 2.5h-1.5A6.25 6.25 0 0 1 23 10.25Zm22 0A6.25 6.25 0 0 0 38.75 4h-1.5a1.25 1.25 0 1 0 0 2.5h1.5a3.75 3.75 0 1 1 0 7.5h-1.5a1.25 1.25 0 1 0 0 2.5h1.5A6.25 6.25 0 0 0 45 10.25Zm-17 0c0-.69.56-1.25 1.25-1.25h9.5a1.25 1.25 0 1 1 0 2.5h-9.5c-.69 0-1.25-.56-1.25-1.25Zm-7 0c0-1.555.417-3.009 1.142-4.25H11.25A7.25 7.25 0 0 0 4 13.25v15.5A7.25 7.25 0 0 0 11.25 36H12v5.82c0 1.824 2.057 2.89 3.547 1.838L26.398 36H36.75A7.25 7.25 0 0 0 44 28.75V16.69a7.817 7.817 0 0 1-5 1.81H29c-4.418 0-8-3.694-8-8.25Z"/></svg>
